flaticon/constructions/parquet-1.svg

<svg xmlns="http://www.w3.org/2000/svg" width="32" height="32" viewBox="0 0 24 24">
    <path d="M 23.601562 0 L 0.398438 0 C 0.160156 0 0 0.160156 0 0.398438 L 0 23.601562 C 0 23.839844 0.160156 24 0.398438 24 L 23.601562 24 C 23.839844 24 24 23.839844 24 23.601562 L 24 7.761719 C 24 7.753906 24 7.75 24 7.742188 C 24 7.734375 24 7.726562 24 7.71875 L 24 0.398438 C 24 0.160156 23.839844 0 23.601562 0 Z M 20.480469 17.640625 L 19.847656 17.007812 C 19.828125 16.960938 19.796875 16.917969 19.761719 16.878906 L 17.78125 14.898438 L 19.460938 13.21875 L 23.199219 16.960938 L 23.199219 20.359375 Z M 11.359375 23.199219 L 10.421875 22.261719 L 17.199219 15.480469 L 18.882812 17.164062 L 17.003906 19.074219 C 16.960938 19.09375 16.917969 19.121094 16.878906 19.160156 L 12.839844 23.199219 Z M 3.558594 0.839844 L 5.921875 0.839844 L 11.519531 6.441406 L 9.847656 8.113281 L 5.039062 3.28125 C 5 3.242188 4.957031 3.210938 4.914062 3.191406 L 3.039062 1.320312 Z M 20.640625 0.800781 L 23.199219 3.398438 L 23.199219 6.761719 L 17.761719 1.320312 L 18.28125 0.800781 Z M 23.199219 15.839844 L 19.820312 12.433594 C 19.800781 12.40625 19.78125 12.382812 19.761719 12.359375 L 17.78125 10.378906 L 19.460938 8.699219 L 23.199219 12.441406 Z M 3.050781 5.851562 L 4.738281 4.179688 L 11.519531 10.960938 L 9.839844 12.640625 Z M 4.738281 8.699219 L 11.519531 15.480469 L 9.839844 17.160156 L 3.050781 10.371094 Z M 10.402344 17.722656 L 12.398438 15.761719 L 17.199219 10.960938 L 18.859375 12.621094 L 12.078125 19.398438 Z M 12.078125 14.878906 L 10.421875 13.21875 L 12.398438 11.238281 L 17.199219 6.441406 L 18.859375 8.101562 Z M 12.082031 10.359375 L 10.40625 8.675781 L 17.179688 1.898438 L 18.859375 3.578125 Z M 0.800781 12.640625 L 2.480469 10.960938 L 4.160156 12.640625 L 0.800781 16 Z M 3.039062 14.921875 L 4.71875 13.238281 L 11.5 20.019531 L 9.839844 21.679688 L 5.039062 16.878906 C 5 16.839844 4.957031 16.8125 4.914062 16.792969 Z M 0.800781 3.558594 L 2.480469 1.878906 L 4.179688 3.578125 L 2.199219 5.558594 L 0.800781 6.960938 Z M 0.800781 8.082031 L 2.488281 6.410156 L 4.160156 8.121094 L 2.199219 10.078125 L 0.800781 11.480469 Z M 0.800781 17.160156 L 2.480469 15.519531 L 4.160156 17.199219 L 0.800781 20.558594 Z M 19.820312 7.914062 C 19.800781 7.886719 19.78125 7.863281 19.761719 7.839844 L 17.78125 5.859375 L 19.460938 4.179688 L 23.199219 7.921875 L 23.199219 11.320312 Z M 23.199219 0.800781 L 23.199219 2.238281 L 21.761719 0.800781 Z M 12.078125 5.839844 L 10.398438 4.160156 L 13.761719 0.800781 L 17.160156 0.800781 Z M 12.601562 0.800781 L 9.820312 3.578125 L 7.039062 0.800781 Z M 0.800781 0.800781 L 2.441406 0.800781 L 2.199219 1.039062 L 0.800781 2.441406 Z M 0.800781 21.679688 L 2.488281 20.007812 L 4.179688 21.699219 L 2.679688 23.199219 L 0.800781 23.199219 Z M 3.839844 23.199219 L 4.761719 22.28125 L 5.679688 23.199219 Z M 6.839844 23.199219 L 3.089844 19.410156 L 4.765625 17.75 L 9.558594 22.519531 L 10.238281 23.199219 Z M 17.199219 20 L 18.898438 21.699219 L 17.398438 23.199219 L 14 23.199219 Z M 18.519531 23.199219 L 19.460938 22.261719 L 20.398438 23.199219 Z M 23.199219 23.199219 L 21.558594 23.199219 L 19.761719 21.398438 C 19.722656 21.363281 19.679688 21.332031 19.632812 21.3125 L 17.761719 19.441406 L 19.460938 17.738281 L 23.199219 21.480469 Z M 23.199219 23.199219"/>
</svg>

<svg xmlns="http://www.w3.org/2000/svg" width="32" height="32" viewBox="0 0 24 24">
    <path d="M23.602 0H.398C.16 0 0 .16 0 .398v23.204c0 .238.16.398.398.398h23.204c.238 0 .398-.16.398-.398V7.762v-.02V.4C24 .16 23.84 0 23.602 0zM20.48 17.64l-.632-.632a.465.465 0 0 0-.086-.13l-1.98-1.98 1.679-1.68 3.738 3.743v3.398zm-9.12 5.56l-.938-.938 6.777-6.782 1.684 1.684-1.88 1.91a.422.422 0 0 0-.124.086l-4.04 4.04zM3.558.84h2.363L11.52 6.44 9.848 8.113 5.039 3.281a.438.438 0 0 0-.125-.09L3.04 1.321zM20.64.8l2.558 2.598v3.364L17.762 1.32l.52-.52zm2.558 15.04l-3.379-3.406a1.23 1.23 0 0 0-.058-.075l-1.98-1.98 1.679-1.68 3.738 3.742zM3.051 5.852L4.738 4.18l6.782 6.78-1.68 1.68zm1.687 2.847l6.782 6.781-1.68 1.68-6.79-6.789zm5.664 9.024l1.996-1.961L17.2 10.96l1.66 1.66-6.78 6.777zm1.676-2.844l-1.656-1.66 1.976-1.98L17.2 6.44l1.66 1.66zm.004-4.52l-1.676-1.683 6.774-6.778 1.68 1.68zM.801 12.641l1.68-1.68 1.68 1.68L.8 16zm2.238 2.28l1.68-1.683L11.5 20.02l-1.66 1.66-4.8-4.801a.422.422 0 0 0-.126-.086zM.801 3.56l1.68-1.68 1.699 1.7-1.98 1.98L.8 6.96zm0 4.523L2.488 6.41 4.16 8.121 2.2 10.078.8 11.48zm0 9.078l1.68-1.64 1.68 1.68L.8 20.558zm19.02-9.246c-.02-.027-.04-.05-.06-.074l-1.98-1.98 1.68-1.68 3.738 3.742v3.398zM23.198.801v1.437L21.762.801zM12.08 5.84l-1.68-1.68L13.761.8h3.398zM12.601.8L9.82 3.579 7.04.801zM.8.8h1.64l-.242.24L.801 2.44zm0 20.88l1.687-1.672 1.692 1.691-1.5 1.5H.8zM3.84 23.2l.922-.919.918.918zm3 0l-3.75-3.79 1.676-1.66 4.793 4.77.68.68zM17.2 20l1.698 1.7-1.5 1.5H14zm1.32 3.2l.94-.938.938.937zm4.68 0h-1.641l-1.797-1.802a.465.465 0 0 0-.13-.085l-1.87-1.872 1.699-1.703 3.738 3.742zm0 0"/>
</svg>
